X: 62
T:Whiskey Before Breakfast
N: page 21
N: heptatonic
S:Norman Blake, sessions (WM August 1997)
B:Fiddler's Fakebook
M:2/4
L:1/16
R:Reel
K:D
Q:1/4=60
E4D2|:"D"D2FD A2AA|ABAG F2DF|"G"GABG "D"FFAF|"A"EDEF EGFE|"D"D2FD A2AA|
"D"ABAG F2DF|"G"GABG "D"FFAF|[1"A"EDEF "D"D2FE:|[2 "A"EDEF "D"D2z2|:"D"d3d {e}d2Bc|"D"dBAG {G}F2D2|
"Em"e3e {f}e2ef|"A"gfed c2Ac|"D"defd "A"ce2e|"G"ABAG "D"F2DF|"G"GABG "D"FFAF|"A"EDEF "D"D2z2:|
